packages/dnb-ui-lib/assets/icons/list.svg

<svg width="17" height="17" viewBox="0 0 17 17" fill="none" xmlns="http://www.w3.org/2000/svg">
<path fill-rule="evenodd" clip-rule="evenodd" d="M2.36595 0C1.05463 0 0 1.06833 0 2.37578C0 3.68323 1.05463 4.75156 2.36595 4.75156C3.67727 4.75156 4.7319 3.68323 4.7319 2.37578C4.7319 1.06833 3.67727 0 2.36595 0ZM1.58385 2.37578C1.58385 1.93376 1.93865 1.58385 2.36595 1.58385C2.79325 1.58385 3.14805 1.93376 3.14805 2.37578C3.14805 2.8178 2.79325 3.16771 2.36595 3.16771C1.93865 3.16771 1.58385 2.8178 1.58385 2.37578ZM2.36595 6.12274C1.05463 6.12274 0 7.19107 0 8.49852C0 9.80597 1.05463 10.8743 2.36595 10.8743C3.67727 10.8743 4.7319 9.80597 4.7319 8.49852C4.7319 7.19107 3.67727 6.12274 2.36595 6.12274ZM1.58385 8.49852C1.58385 8.05649 1.93865 7.70659 2.36595 7.70659C2.79325 7.70659 3.14805 8.05649 3.14805 8.49852C3.14805 8.94054 2.79325 9.29044 2.36595 9.29044C1.93865 9.29044 1.58385 8.94054 1.58385 8.49852ZM0 14.6242C0 13.3168 1.05463 12.2484 2.36595 12.2484C3.67727 12.2484 4.7319 13.3168 4.7319 14.6242C4.7319 15.9317 3.67727 17 2.36595 17C1.05463 17 0 15.9317 0 14.6242ZM2.36595 13.8323C1.93865 13.8323 1.58385 14.1822 1.58385 14.6242C1.58385 15.0662 1.93865 15.4161 2.36595 15.4161C2.79325 15.4161 3.14805 15.0662 3.14805 14.6242C3.14805 14.1822 2.79325 13.8323 2.36595 13.8323ZM7.44416 1.47822C7.00679 1.47822 6.65224 1.83278 6.65224 2.27015C6.65224 2.70752 7.00679 3.06208 7.44416 3.06208H15.8914C16.3287 3.06208 16.6833 2.70752 16.6833 2.27015C16.6833 1.83278 16.3287 1.47822 15.8914 1.47822H7.44416ZM6.65224 8.5C6.65224 8.06263 7.00679 7.70807 7.44416 7.70807H15.8914C16.3287 7.70807 16.6833 8.06263 16.6833 8.5C16.6833 8.93737 16.3287 9.29193 15.8914 9.29193H7.44416C7.00679 9.29193 6.65224 8.93737 6.65224 8.5ZM7.44416 13.9379C7.00679 13.9379 6.65224 14.2925 6.65224 14.7298C6.65224 15.1672 7.00679 15.5218 7.44416 15.5218H15.8914C16.3287 15.5218 16.6833 15.1672 16.6833 14.7298C16.6833 14.2925 16.3287 13.9379 15.8914 13.9379H7.44416Z" fill="black"/>
</svg>

<svg width="16" height="16" viewBox="0 0 17 17" fill="none" xmlns="http://www.w3.org/2000/svg"><path fill-rule="evenodd" clip-rule="evenodd" d="M2.366 0A2.37 2.37 0 000 2.376a2.37 2.37 0 002.366 2.376 2.37 2.37 0 002.366-2.376A2.37 2.37 0 002.366 0zm-.782 2.376c0-.442.355-.792.782-.792.427 0 .782.35.782.792a.787.787 0 01-.782.792.787.787 0 01-.782-.792zm.782 3.747A2.37 2.37 0 000 8.499a2.37 2.37 0 002.366 2.375A2.37 2.37 0 004.732 8.5a2.37 2.37 0 00-2.366-2.376zm-.782 2.376c0-.443.355-.792.782-.792.427 0 .782.35.782.792a.787.787 0 01-.782.791.787.787 0 01-.782-.791zM0 14.624a2.37 2.37 0 012.366-2.376 2.37 2.37 0 012.366 2.376A2.37 2.37 0 012.366 17 2.37 2.37 0 010 14.624zm2.366-.792a.787.787 0 00-.782.792c0 .442.355.792.782.792.427 0 .782-.35.782-.792a.787.787 0 00-.782-.792zM7.444 1.478a.792.792 0 000 1.584h8.447a.792.792 0 000-1.584H7.444zM6.652 8.5c0-.437.355-.792.792-.792h8.447a.792.792 0 010 1.584H7.444a.792.792 0 01-.792-.792zm.792 5.438a.792.792 0 000 1.584h8.447a.792.792 0 000-1.584H7.444z" fill="#000"/></svg>
